X:1
T:Title
%%score { ( 1 3 ) | 2 }
L:1/8
M:6/4
K:C
V:1 treble nm="Grand Piano"
V:3 treble 
V:2 bass 
V:1
 z6 z4[Q:1/4=174] [EG]2 | [EG]4 G2 G4 G2 | A4 A2 [EG]4 G2 | c6 B6 | [Ec]6- [Ec]4 [EG]2 | %5
 [EG]4 G2 G4 G2 | A4 A2 [EG]4 G2 | c6 B6 |[M:5/4] [Ec]2- [Ec]2- [Ec]6 |[M:1/4] [Ec]2 | %10
[M:6/4] [Ge]4 [Ge]2 [Ec]4 [Gc]2 | [^Fd]4 [Fd]2 B4 B2 | c4 c2 B4 B2 | A4 A2 [EG]4 [EG]2 | %14
 [EG]4 G2 G4 G2 | A4 A2 [CEG]4 [EG]2 | [CEc]6 [DFB]6 |[M:5/4] [CEc]2- [CEc]2- [CEc]6 |[M:1/4] G2 | %19
[M:6/4] G4 F2 E4 [CEG]2 | [DF]4- [B,D-F-]2 [B,DF]4 F2 | F4 E2 D4 [DF]2 | %22
[M:5/4] [CE]2- [CE]2- [CE]6 |[M:1/4] [Ec]2 |[M:6/4] [Ge]4 [Ge]2 [Ec]4 [Gc]2 | [^Fd]4 [Fd]2 B4 B2 | %26
 c4 c2 B4 B2 | A4 A2 [EG]4 [EG]2 | [EG]4 G2 G4 G2 | A4 A2 [EG]4 G2 | c6 B6 |[M:9/4] [Ec]12 z6 |] %32
V:2
 z6 z4 [C,C]2 | [C,C]4 [D,G,B,]2 [E,G,C]4 [E,C]2 | [F,CF]4 [F,CF]2 [C,C]4[K:treble] [CE]2 | %3
 [A,CE]6 [G,DF]6 | [C,C]6- [C,C]4 [C,C]2 | [C,C]4 [D,G,B,]2 [E,G,C]4 [E,C]2 | %6
 [F,CF]4 [F,CF]2 [C,C]4[K:treble] [CE]2 | [A,CE]6 [G,DF]6 |[M:5/4][K:bass] [C,C]2- [C,C]2- [C,C]6 | %9
[M:1/4] [C,G,]2 |[M:6/4] [C,C]4 [C,C]2 [C,G,]4 [E,C]2 | [D,A,]4 [D,D]2[K:treble] [G,DF]4 [^G,DE]2 | %12
 [A,CE]4 [A,E]2 [E,^G,E]4 [E,G,D]2 | [F,A,C]4 [F,CF]2 [C,C]4 [C,C]2 | %14
 [C,C]4 [D,G,B,]2 [E,G,C]4 [E,C]2 | [F,CF]4 [F,CF]2 C,4 C2 | A,6 G,6 |[M:5/4] C,2- C,2- C,6 | %18
[M:1/4] E2 |[M:6/4] E4 D2 C4 C,2 | G,4 G,2 G,4[K:treble] D2 | D4 C2 B,4 G,2 | %22
[M:5/4][K:bass] C,4 C,2 C,4 |[M:1/4] [C,G,]2 |[M:6/4] [C,C]4 [C,C]2 [C,G,]4 [E,C]2 | %25
 [D,A,]4 [D,D]2[K:treble] [G,DF]4 [^G,DE]2 | [A,CE]4 [A,E]2 [E,^G,E]4 [E,G,D]2 | %27
 [F,A,C]4 [F,CF]2 [C,C]4 [C,C]2 | [C,C]4 [D,G,B,]2 [E,G,C]4 [E,C]2 | %29
 [F,CF]4 [F,CF]2 [C,C]4[K:treble] [CE]2 | [A,CE]6 [G,DF]6 |[M:9/4][K:bass] [C,C]12 z6 |] %32
V:3
 x12 | x12 | x12 | x12 | x12 | x12 | x12 | x12 |[M:5/4] x10 |[M:1/4] x2 |[M:6/4] x12 | x12 | x12 | %13
 x12 | x12 | x12 | x12 |[M:5/4] x10 |[M:1/4] x2 |[M:6/4] x12 | .B,6 z6 | x12 |[M:5/4] G,4 G,2 G,4 | %23
[M:1/4] x2 |[M:6/4] x12 | x12 | x12 | x12 | x12 | x12 | x12 |[M:9/4] x18 |] %32

